packages/foundations/assets/icons/functional/images/social/heart_16_filled.svg

<svg width="16" height="16" viewBox="0 0 16 16" fill="none" xmlns="http://www.w3.org/2000/svg">
<g clip-path="url(#clip0_2214_6228)">
<path fill-rule="evenodd" clip-rule="evenodd" d="M7.08564 13.0156L2.64488 8.70537C1.92908 8.01063 1.59998 7.08568 1.59998 6.17143C1.59998 4.21228 3.19341 2.59259 5.15265 2.59259C6.0669 2.59259 6.99411 2.94518 7.6865 3.6375L7.99998 3.95097L8.23504 3.74199C8.99456 3.06698 9.8808 2.61875 10.8473 2.61875C12.7805 2.61875 14.4 4.08003 14.4 5.98861C14.4 7.00735 14.1109 7.97176 13.3551 8.70537L8.91431 13.0156C8.67565 13.2471 8.33953 13.4074 7.99998 13.4074C7.66042 13.4074 7.3243 13.2471 7.08564 13.0156Z" fill="#1A1C1F"/>
</g>
<defs>
<clipPath id="clip0_2214_6228">
<rect width="16" height="16" fill="white"/>
</clipPath>
</defs>
</svg>

<svg xmlns="http://www.w3.org/2000/svg" width="16" height="16" fill="none"><g clip-path="url(#a)"><path fill="#1A1C1F" fill-rule="evenodd" d="m7.086 13.016-4.441-4.31C1.929 8.01 1.6 7.085 1.6 6.17c0-1.959 1.593-3.578 3.553-3.578a3.6 3.6 0 0 1 2.534 1.045L8 3.95l.235-.209c.76-.675 1.646-1.123 2.612-1.123 1.934 0 3.553 1.461 3.553 3.37 0 1.018-.29 1.983-1.045 2.716l-4.44 4.31a1.35 1.35 0 0 1-.915.392c-.34 0-.676-.16-.914-.391" clip-rule="evenodd"/></g><defs><clipPath id="a"><path fill="#fff" d="M0 0h16v16H0z"/></clipPath></defs></svg>
